X:1479
T:Jenny's Wedding
R:reel
N:"collected from J. O'Neill"
B:"O'Neill's Dance Music of Ireland, 1479"
T: banais sineidin.
Z:usually played in D Mixolydian (one sharp) these days
Z:transcribed by John B. Walsh, 8/22/96
M:C|
L:1/8
K:D
3.D.D.D FD ADFD|Adde fded|cAAB c2 cd|eabag edcd|
3.D.D.D FA defd|cAAB cdeg|fdec d2 cA|BdAF EDFA||
3.d.d.d fd adfd|ecAB cdec|3.d.d.d fd adfd|cdeg fd d2|
3.d.d.d fd adfd|cdef g2 fg|3agf ge fdec|dBAG FD D2||
